public/img/partner-section-4.svg

<svg width="109" height="110" viewBox="0 0 109 110" fill="none" xmlns="http://www.w3.org/2000/svg">
<path d="M75.0215 106.777H102.385C104.149 106.777 105.578 105.334 105.578 103.555V55C105.578 53.2202 104.149 51.7773 102.385 51.7773H75.0215C73.2579 51.7773 71.8281 53.2202 71.8281 55V103.555C71.8281 105.334 73.2579 106.777 75.0215 106.777Z" fill="#FF695A"/>
<path d="M33.977 106.777H6.61328C4.8497 106.777 3.41992 105.334 3.41992 103.555V55C3.41992 53.2202 4.8497 51.7773 6.61328 51.7773H33.977C35.7406 51.7773 37.1703 53.2202 37.1703 55V103.555C37.1703 105.334 35.7406 106.777 33.977 106.777Z" fill="#FF965A"/>
<path d="M64.7609 44.4153H44.2383C42.4747 44.4153 41.0449 42.9724 41.0449 41.1926V23.9336C41.0449 22.1538 42.4747 20.7109 44.2383 20.7109H64.7609C66.5245 20.7109 67.9543 22.1538 67.9543 23.9336V41.1926C67.9543 42.9726 66.5245 44.4153 64.7609 44.4153Z" fill="#FFC362"/>
<path d="M67.9547 41.1926V23.9336C67.9547 22.1538 66.5249 20.7109 64.7613 20.7109H54.5V44.4153H64.7613C66.5249 44.4153 67.9547 42.9726 67.9547 41.1926Z" fill="#FF965A"/>
<path d="M16.875 44.4153C15.1114 44.4153 13.6816 42.9724 13.6816 41.1926V34.2891C13.6816 32.5093 15.1114 31.0664 16.875 31.0664C18.6386 31.0664 20.0684 32.5093 20.0684 34.2891V41.1926C20.0684 42.9726 18.6386 44.4153 16.875 44.4153Z" fill="#003764"/>
<path d="M78.4434 44.4153C76.6798 44.4153 75.25 42.9724 75.25 41.1926V34.2891C75.25 32.5093 76.6798 31.0664 78.4434 31.0664C80.2069 31.0664 81.6367 32.5093 81.6367 34.2891V41.1926C81.6367 42.9726 80.2069 44.4153 78.4434 44.4153Z" fill="#00141E"/>
<path d="M30.5566 44.4153C28.7931 44.4153 27.3633 42.9724 27.3633 41.1926V34.2891C27.3633 32.5093 28.7931 31.0664 30.5566 31.0664C32.3202 31.0664 33.75 32.5093 33.75 34.2891V41.1926C33.75 42.9726 32.3202 44.4153 30.5566 44.4153Z" fill="#003764"/>
<path d="M92.125 44.4153C90.3614 44.4153 88.9316 42.9724 88.9316 41.1926V34.2891C88.9316 32.5093 90.3614 31.0664 92.125 31.0664C93.8886 31.0664 95.3184 32.5093 95.3184 34.2891V41.1926C95.3184 42.9726 93.8888 44.4153 92.125 44.4153Z" fill="#00141E"/>
<path d="M54.5 13.3489C52.7364 13.3489 51.3066 11.906 51.3066 10.1262V3.22266C51.3066 1.44289 52.7364 0 54.5 0C56.2636 0 57.6934 1.44289 57.6934 3.22266V10.1262C57.6934 11.906 56.2636 13.3489 54.5 13.3489Z" fill="#49B867"/>
<path d="M17.1035 77.2078C15.3399 77.2078 13.9102 75.7649 13.9102 73.9851V68.8074C13.9102 67.0276 15.3399 65.5847 17.1035 65.5847C18.8671 65.5847 20.2969 67.0276 20.2969 68.8074V73.9851C20.2969 75.7649 18.8671 77.2078 17.1035 77.2078Z" fill="#96412B"/>
<path d="M17.1035 96.1926C15.3399 96.1926 13.9102 94.7497 13.9102 92.97V87.7922C13.9102 86.0125 15.3399 84.5696 17.1035 84.5696C18.8671 84.5696 20.2969 86.0125 20.2969 87.7922V92.97C20.2969 94.75 18.8671 96.1926 17.1035 96.1926Z" fill="#96412B"/>
<path d="M33.9769 58.2226H6.61326C5.40361 58.2226 4.29786 57.533 3.75712 56.4412C3.21616 55.3493 3.33283 54.0429 4.05857 53.0664L14.3199 39.259C14.923 38.4476 15.8693 37.97 16.8746 37.97H50.1026C51.4418 37.97 52.6389 38.8134 53.1003 40.0823C53.5618 41.351 53.1897 42.7758 52.1684 43.65L36.0426 57.4574C35.4659 57.9515 34.7336 58.2226 33.9769 58.2226Z" fill="#005AAA"/>
<path d="M102.386 58.2226H75.0222C74.2654 58.2226 73.5333 57.9515 72.9563 57.4574L56.8307 43.65C55.8095 42.7756 55.4373 41.351 55.8989 40.0821C56.3604 38.8134 57.5573 37.97 58.8966 37.97H92.1244C93.1296 37.97 94.0759 38.4476 94.679 39.259L104.94 53.0664C105.666 54.0429 105.783 55.3493 105.242 56.4412C104.701 57.533 103.595 58.2226 102.386 58.2226Z" fill="#003764"/>
<path d="M105.807 58.2227H3.19336C1.42977 58.2227 0 56.7798 0 55C0 53.2202 1.42977 51.7773 3.19336 51.7773H105.807C107.57 51.7773 109 53.2202 109 55C109 56.7798 107.57 58.2227 105.807 58.2227Z" fill="#003764"/>
<path d="M91.8965 77.2078C93.6601 77.2078 95.0898 75.7649 95.0898 73.9851V68.8074C95.0898 67.0276 93.6601 65.5847 91.8965 65.5847C90.1329 65.5847 88.7031 67.0276 88.7031 68.8074V73.9851C88.7031 75.7649 90.1329 77.2078 91.8965 77.2078Z" fill="#641E23"/>
<path d="M91.8965 96.1926C93.6601 96.1926 95.0898 94.7497 95.0898 92.97V87.7922C95.0898 86.0125 93.6601 84.5696 91.8965 84.5696C90.1329 84.5696 88.7031 86.0125 88.7031 87.7922V92.97C88.7031 94.75 90.1329 96.1926 91.8965 96.1926Z" fill="#641E23"/>
<path d="M41.0449 23.9336V20.4817C41.0449 12.9813 47.0574 6.90356 54.4996 6.90356C61.9318 6.90356 67.9543 12.9714 67.9543 20.4817V23.9336H41.0449Z" fill="#BEFF69"/>
<path d="M67.9547 20.4817C67.9547 12.9712 61.9322 6.90356 54.5 6.90356V23.9336H67.9547V20.4817Z" fill="#84DC68"/>
<path d="M105.807 51.7773H54.5V58.2227H105.807C107.57 58.2227 109 56.7798 109 55C109 53.2202 107.57 51.7773 105.807 51.7773Z" fill="#00141E"/>
<path d="M75.0238 106.777H33.9785C32.2149 106.777 30.7852 105.334 30.7852 103.555V55C30.7852 53.2202 32.2149 51.7773 33.9785 51.7773H75.0238C76.7874 51.7773 78.2172 53.2202 78.2172 55V103.555C78.2172 105.334 76.7876 106.777 75.0238 106.777Z" fill="#FFC362"/>
<path d="M78.216 103.555V55C78.216 53.2202 76.7862 51.7773 75.0227 51.7773H54.5V106.777H75.0227C76.7865 106.777 78.216 105.334 78.216 103.555Z" fill="#FF965A"/>
<path d="M45.5293 77.2078C43.7657 77.2078 42.3359 75.7649 42.3359 73.9851V68.8074C42.3359 67.0276 43.7657 65.5847 45.5293 65.5847C47.2929 65.5847 48.7227 67.0276 48.7227 68.8074V73.9851C48.7227 75.7649 47.2929 77.2078 45.5293 77.2078Z" fill="#C86432"/>
<path d="M45.5293 96.1926C43.7657 96.1926 42.3359 94.7497 42.3359 92.97V87.7922C42.3359 86.0125 43.7657 84.5696 45.5293 84.5696C47.2929 84.5696 48.7227 86.0125 48.7227 87.7922V92.97C48.7227 94.75 47.2929 96.1926 45.5293 96.1926Z" fill="#C86432"/>
<path d="M63.4707 77.2078C61.7071 77.2078 60.2773 75.7649 60.2773 73.9851V68.8074C60.2773 67.0276 61.7071 65.5847 63.4707 65.5847C65.2343 65.5847 66.6641 67.0276 66.6641 68.8074V73.9851C66.6641 75.7649 65.2345 77.2078 63.4707 77.2078Z" fill="#96412B"/>
<path d="M63.4707 96.1926C61.7071 96.1926 60.2773 94.7497 60.2773 92.97V87.7922C60.2773 86.0125 61.7071 84.5696 63.4707 84.5696C65.2343 84.5696 66.6641 86.0125 66.6641 87.7922V92.97C66.6641 94.75 65.2345 96.1926 63.4707 96.1926Z" fill="#96412B"/>
<path d="M105.807 110H3.19336C1.42977 110 0 108.557 0 106.777C0 104.998 1.42977 103.555 3.19336 103.555H105.807C107.57 103.555 109 104.998 109 106.777C109 108.557 107.57 110 105.807 110Z" fill="#C86432"/>
<path d="M109 106.777C109 104.998 107.57 103.555 105.807 103.555H54.5V110H105.807C107.57 110 109 108.557 109 106.777Z" fill="#96412B"/>
<path d="M75.0219 58.2227H33.9766C32.6322 58.2227 31.4317 57.3727 30.974 56.097C30.5165 54.8212 30.8995 53.3928 31.9324 52.5241L52.4551 35.2651C53.6394 34.2691 55.3596 34.2691 56.5437 35.2651L77.0663 52.5241C78.0993 53.3928 78.4823 54.8212 78.0247 56.097C77.5668 57.3727 76.3665 58.2227 75.0219 58.2227Z" fill="#FFF069"/>
<path d="M78.0253 56.097C78.4828 54.8213 78.0998 53.3928 77.0668 52.5242L56.5442 35.2651C55.9521 34.7671 55.226 34.5181 54.5 34.5181V58.2227H75.0227C76.3671 58.2227 77.5673 57.3727 78.0253 56.097Z" fill="#FFC362"/>
</svg>

<svg width="109" height="110" fill="none" xmlns="http://www.w3.org/2000/svg"><path d="M75.022 106.777h27.363c1.764 0 3.193-1.443 3.193-3.222V55c0-1.78-1.429-3.223-3.193-3.223H75.021c-1.763 0-3.193 1.443-3.193 3.223v48.555c0 1.779 1.43 3.222 3.194 3.222z" fill="#FF695A"/><path d="M33.977 106.777H6.613c-1.763 0-3.193-1.443-3.193-3.222V55c0-1.78 1.43-3.223 3.193-3.223h27.364c1.764 0 3.193 1.443 3.193 3.223v48.555c0 1.779-1.43 3.222-3.193 3.222z" fill="#FF965A"/><path d="M64.76 44.415H44.239c-1.763 0-3.193-1.443-3.193-3.222v-17.26c0-1.78 1.43-3.222 3.193-3.222h20.523c1.764 0 3.193 1.443 3.193 3.223v17.259c0 1.78-1.43 3.222-3.193 3.222z" fill="#FFC362"/><path d="M67.955 41.193v-17.26c0-1.78-1.43-3.222-3.194-3.222H54.5v23.704h10.261c1.764 0 3.194-1.442 3.194-3.222z" fill="#FF965A"/><path d="M16.875 44.415c-1.764 0-3.193-1.443-3.193-3.222v-6.904c0-1.78 1.43-3.223 3.193-3.223 1.764 0 3.193 1.443 3.193 3.223v6.904c0 1.78-1.43 3.222-3.193 3.222z" fill="#003764"/><path d="M78.443 44.415c-1.763 0-3.193-1.443-3.193-3.222v-6.904c0-1.78 1.43-3.223 3.193-3.223 1.764 0 3.194 1.443 3.194 3.223v6.904c0 1.78-1.43 3.222-3.194 3.222z" fill="#00141E"/><path d="M30.557 44.415c-1.764 0-3.194-1.443-3.194-3.222v-6.904c0-1.78 1.43-3.223 3.194-3.223 1.763 0 3.193 1.443 3.193 3.223v6.904c0 1.78-1.43 3.222-3.193 3.222z" fill="#003764"/><path d="M92.125 44.415c-1.764 0-3.193-1.443-3.193-3.222v-6.904c0-1.78 1.43-3.223 3.193-3.223 1.764 0 3.193 1.443 3.193 3.223v6.904c0 1.78-1.43 3.222-3.193 3.222z" fill="#00141E"/><path d="M54.5 13.349c-1.764 0-3.193-1.443-3.193-3.223V3.223C51.307 1.443 52.737 0 54.5 0c1.764 0 3.193 1.443 3.193 3.223v6.903c0 1.78-1.43 3.223-3.193 3.223z" fill="#49B867"/><path d="M17.104 77.208c-1.764 0-3.194-1.443-3.194-3.223v-5.178c0-1.78 1.43-3.222 3.194-3.222 1.763 0 3.193 1.443 3.193 3.222v5.178c0 1.78-1.43 3.223-3.194 3.223zm0 18.985c-1.764 0-3.194-1.443-3.194-3.223v-5.178c0-1.78 1.43-3.222 3.194-3.222 1.763 0 3.193 1.443 3.193 3.222v5.178c0 1.78-1.43 3.223-3.194 3.223z" fill="#96412B"/><path d="M33.977 58.223H6.613a3.19 3.19 0 01-2.856-1.782 3.247 3.247 0 01.302-3.375l10.26-13.807a3.184 3.184 0 012.556-1.289h33.228c1.339 0 2.536.843 2.997 2.112a3.242 3.242 0 01-.932 3.568L36.043 57.457a3.175 3.175 0 01-2.066.766z" fill="#005AAA"/><path d="M102.386 58.223H75.022a3.176 3.176 0 01-2.066-.766L56.831 43.65a3.242 3.242 0 01-.932-3.568 3.195 3.195 0 012.998-2.112h33.227c1.006 0 1.952.478 2.555 1.289l10.261 13.807c.726.977.843 2.283.302 3.375a3.19 3.19 0 01-2.856 1.782z" fill="#003764"/><path d="M105.807 58.223H3.193C1.43 58.223 0 56.78 0 55c0-1.78 1.43-3.223 3.193-3.223h102.614C107.57 51.777 109 53.22 109 55c0 1.78-1.43 3.223-3.193 3.223z" fill="#003764"/><path d="M91.897 77.208c1.763 0 3.193-1.443 3.193-3.223v-5.178c0-1.78-1.43-3.222-3.194-3.222-1.763 0-3.193 1.443-3.193 3.222v5.178c0 1.78 1.43 3.223 3.194 3.223zm0 18.985c1.763 0 3.193-1.443 3.193-3.223v-5.178c0-1.78-1.43-3.222-3.194-3.222-1.763 0-3.193 1.443-3.193 3.222v5.178c0 1.78 1.43 3.223 3.194 3.223z" fill="#641E23"/><path d="M41.045 23.934v-3.452c0-7.5 6.012-13.578 13.455-13.578 7.432 0 13.454 6.067 13.454 13.578v3.452h-26.91z" fill="#BEFF69"/><path d="M67.955 20.482c0-7.51-6.023-13.578-13.455-13.578v17.03h13.455v-3.452z" fill="#84DC68"/><path d="M105.807 51.777H54.5v6.446h51.307C107.57 58.223 109 56.78 109 55c0-1.78-1.43-3.223-3.193-3.223z" fill="#00141E"/><path d="M75.024 106.777H33.978c-1.763 0-3.193-1.443-3.193-3.222V55c0-1.78 1.43-3.223 3.193-3.223h41.046c1.763 0 3.193 1.443 3.193 3.223v48.555c0 1.779-1.43 3.222-3.193 3.222z" fill="#FFC362"/><path d="M78.216 103.555V55c0-1.78-1.43-3.223-3.193-3.223H54.5v55h20.523c1.764 0 3.193-1.443 3.193-3.222z" fill="#FF965A"/><path d="M45.53 77.208c-1.764 0-3.194-1.443-3.194-3.223v-5.178c0-1.78 1.43-3.222 3.193-3.222 1.764 0 3.194 1.443 3.194 3.222v5.178c0 1.78-1.43 3.223-3.194 3.223zm0 18.985c-1.764 0-3.194-1.443-3.194-3.223v-5.178c0-1.78 1.43-3.222 3.193-3.222 1.764 0 3.194 1.443 3.194 3.222v5.178c0 1.78-1.43 3.223-3.194 3.223z" fill="#C86432"/><path d="M63.47 77.208c-1.763 0-3.193-1.443-3.193-3.223v-5.178c0-1.78 1.43-3.222 3.194-3.222 1.763 0 3.193 1.443 3.193 3.222v5.178c0 1.78-1.43 3.223-3.193 3.223zm0 18.985c-1.763 0-3.193-1.443-3.193-3.223v-5.178c0-1.78 1.43-3.222 3.194-3.222 1.763 0 3.193 1.443 3.193 3.222v5.178c0 1.78-1.43 3.223-3.193 3.223z" fill="#96412B"/><path d="M105.807 110H3.193C1.43 110 0 108.557 0 106.777c0-1.779 1.43-3.222 3.193-3.222h102.614c1.763 0 3.193 1.443 3.193 3.222 0 1.78-1.43 3.223-3.193 3.223z" fill="#C86432"/><path d="M109 106.777c0-1.779-1.43-3.222-3.193-3.222H54.5V110h51.307c1.763 0 3.193-1.443 3.193-3.223z" fill="#96412B"/><path d="M75.022 58.223H33.977a3.195 3.195 0 01-3.003-2.126 3.242 3.242 0 01.958-3.573l20.523-17.259a3.17 3.17 0 014.089 0l20.522 17.26a3.242 3.242 0 01.959 3.572 3.195 3.195 0 01-3.003 2.126z" fill="#FFF069"/><path d="M78.025 56.097a3.242 3.242 0 00-.958-3.573L56.544 35.265a3.17 3.17 0 00-2.044-.747v23.705h20.523c1.344 0 2.544-.85 3.002-2.126z" fill="#FFC362"/></svg>
